glitch-avatars-svg/base_avatar/Avatar.fla/placeholder symbols 2/Avatar_backLegLowerRight2.svg

<?xml version="1.0" encoding="UTF-8" standalone="no"?>
<!-- Generator: flash2svg, http://dissentgraphics.com/tools/flash2svg -->

<svg
   xmlns:dc="http://purl.org/dc/elements/1.1/"
   xmlns:cc="http://creativecommons.org/ns#"
   xmlns:rdf="http://www.w3.org/1999/02/22-rdf-syntax-ns#"
   xmlns:svg="http://www.w3.org/2000/svg"
   xmlns="http://www.w3.org/2000/svg"
   xmlns:sodipodi="http://sodipodi.sourceforge.net/DTD/sodipodi-0.dtd"
   xmlns:inkscape="http://www.inkscape.org/namespaces/inkscape"
   id="Avatar"
   image-rendering="auto"
   version="1.1"
   x="0px"
   y="0px"
   width="24.493"
   height="14.769"
   viewBox="0 0 24.493 14.769"
   inkscape:version="0.48.4 r9939"
   sodipodi:docname="Avatar_backLegLowerRight2.svg">
  <metadata
     id="metadata3267">
    <rdf:RDF>
      <cc:Work
         rdf:about="">
        <dc:format>image/svg+xml</dc:format>
        <dc:type
           rdf:resource="http://purl.org/dc/dcmitype/StillImage" />
      </cc:Work>
    </rdf:RDF>
  </metadata>
  <sodipodi:namedview
     pagecolor="#ffffff"
     bordercolor="#666666"
     borderopacity="1"
     objecttolerance="10"
     gridtolerance="10"
     guidetolerance="10"
     inkscape:pageopacity="0"
     inkscape:pageshadow="2"
     inkscape:window-width="640"
     inkscape:window-height="480"
     id="namedview3265"
     showgrid="false"
     fit-margin-top="0"
     fit-margin-left="0"
     fit-margin-right="0"
     fit-margin-bottom="0"
     inkscape:zoom="1.8730159"
     inkscape:cx="55.943"
     inkscape:cy="-51.55"
     inkscape:window-x="0"
     inkscape:window-y="0"
     inkscape:window-maximized="0"
     inkscape:current-layer="Avatar" />
  <defs
     id="defs3244" />
  <g
     id="backLegLowerRight3"
     overflow="visible"
     style="overflow:visible"
     transform="translate(21.943,3.319)">
    <g
       id="backLegLowerRight2_4">
      <g
         id="element2">
        <path
           id="path19"
           d="M 2.3,-0.45 Q 2.15,-1 1.65,-1.25 l 0.1,-0.05 c -0.05,0 -0.15,0 -0.2,0 0.05,0.1 0.05,0.2 0.05,0.35 l 0,0.05 c 0.05,0.1 0.1,0.2 0.15,0.3 0.15,0.45 0.15,1.05 0,1.75 C 1.6,1.7 1.45,2.2 1.3,2.7 1.35,2.65 1.4,2.65 1.45,2.6 1.45,2.65 1.4,2.75 1.35,2.8 0.25,5.45 -0.9,7.45 -2.1,8.75 -3.35,10.1 -4.35,10.85 -5.1,11.1 -6.15,11 -7.2,10.65 -8.15,10.05 -8.45,9.85 -8.65,9.6 -8.8,9.3 l -0.05,0 C -9.35,7.4 -9,5.5 -7.75,3.55 -7.55,3.2 -7.35,2.85 -7.1,2.5 -7.05,2.3 -6.95,2.1 -6.85,1.95 -6.3,1 -5.7,0.25 -4.95,-0.4 c 0.15,-0.2 0.3,-0.45 0.45,-0.7 0.4,-0.5 0.85,-0.9 1.4,-1.25 -0.05,0 -0.05,0 -0.1,0 -1.45,0.6 -2.55,1.55 -3.3,2.9 -0.05,0.15 -0.1,0.3 -0.25,0.45 -1.45,1.95 -2.4,4.15 -2.8,6.55 -0.25,1.45 0.2,2.55 1.35,3.3 -0.05,-0.05 -0.1,-0.15 -0.15,-0.2 0.45,0.4 1.1,0.65 2.05,0.8 C -4.25,11.1 -2.65,10.3 -1.5,9.1 -1.55,9.15 -1.55,9.2 -1.6,9.25 -0.45,8 0.5,6.55 1.25,4.8 1.6,4 1.85,3.3 2,2.65 1.7,3.05 1.45,3.5 1.2,3.95 1.5,3.25 1.75,2.6 1.95,2.05 2.4,1.4 2.5,0.6 2.3,-0.45 z"
           inkscape:connector-curvature="0"
           style="fill:#663300" />
        <path
           id="path20"
           d="m 1.6,-0.95 c 0,-0.15 0,-0.25 -0.05,-0.35 -0.1,-0.05 -0.2,-0.1 -0.3,-0.15 l -0.1,0 C -0.05,-1.8 -1.3,-2.1 -2.6,-2.3 c -0.2,0 -0.35,0 -0.5,-0.05 -0.55,0.35 -1,0.75 -1.4,1.25 -0.15,0.25 -0.3,0.5 -0.45,0.7 C -5.7,0.25 -6.3,1 -6.85,1.95 -6.95,2.1 -7.05,2.3 -7.1,2.5 -7.35,2.85 -7.55,3.2 -7.75,3.55 -9,5.5 -9.35,7.4 -8.85,9.3 l 0.05,0 c 0.15,0.3 0.35,0.55 0.65,0.75 0.95,0.6 2,0.95 3.05,1.05 0.75,-0.25 1.75,-1 3,-2.35 1.2,-1.3 2.35,-3.3 3.45,-5.95 L 1.3,2.7 C 1.45,2.2 1.6,1.7 1.75,1.15 1.9,0.45 1.9,-0.15 1.75,-0.6 1.7,-0.7 1.65,-0.8 1.6,-0.9 l 0,-0.05 z"
           inkscape:connector-curvature="0"
           style="fill:#ffffcc" />
      </g>
      <animate
         attributeName="display"
         begin="0s"
         repeatCount="indefinite"
         dur="0.167s"
         keyTimes="0;0.798;1"
         values="none;inline;none"
         id="animate3251" />
    </g>
    <g
       id="backLegLowerRight2_2">
      <g
         id="element1">
        <path
           id="path10"
           d="m -14.191,-3.269 q 0.058,-10e-4 0.127,0.002 c 1.069,0.031 2.094,0.257 2.968,0.706 -0.157,0.017 -0.304,-0.016 -0.461,10e-4 0.233,0.103 0.505,0.265 0.727,0.416 0.049,0.011 0.049,0.011 0.038,0.06 0.115,0.179 0.18,0.347 0.245,0.515 0.093,0.276 0.147,0.493 0.142,0.748 0.077,0.119 0.153,0.238 0.18,0.347 l 0.011,-0.049 c -0.015,0.765 -0.345,1.562 -0.989,2.393 -0.433,0.57 -0.671,1.183 -0.713,1.84 l 0.068,0.04 -0.03,0.019 c -0.762,1.368 -1.574,2.725 -2.423,4.023 -0.071,0.087 -0.092,0.184 -0.152,0.222 -0.179,0.115 -0.298,0.191 -0.428,0.316 l -0.038,-0.06 c -0.991,1.01 -2.216,1.457 -3.675,1.34 -0.401,-0.037 -0.802,-0.075 -1.253,-0.123 -1.036,-0.638 -1.635,-1.64 -1.734,-3.045 -0.077,-0.58 0.052,-1.166 0.366,-1.66 0.703,-1.33 1.384,-2.562 2.017,-3.805 l 0.005,-0.024 0.092,0.046 c 0.746,-1.526 1.591,-2.568 2.582,-3.117 0.152,-0.223 0.341,-0.386 0.531,-0.549 0.309,-0.239 0.607,-0.429 0.905,-0.62 0.108,-0.027 0.206,-0.005 0.303,0.016 l 0.006,-0.024 0.583,0.026 z"
           inkscape:connector-curvature="0"
           style="fill:#ffffcc" />
        <path
           id="path11"
           d="m -15.23,-3.319 c 0.049,0.011 0.098,0.022 0.147,0.032 -0.298,0.191 -0.596,0.381 -0.905,0.62 -0.19,0.163 -0.379,0.326 -0.531,0.549 -0.991,0.549 -1.836,1.591 -2.582,3.117 -0.027,-0.109 -0.005,-0.206 0.027,-0.353 -0.022,0.098 -0.043,0.195 -0.124,0.331 -0.633,1.243 -1.314,2.475 -2.017,3.805 -0.314,0.494 -0.443,1.08 -0.366,1.66 0.099,1.405 0.698,2.407 1.734,3.045 0.451,0.048 0.852,0.086 1.253,0.123 1.459,0.117 2.684,-0.33 3.675,-1.34 -0.01,0.049 -0.021,0.098 -0.032,0.147 0.06,-0.039 0.06,-0.039 0.07,-0.087 0.13,-0.125 0.249,-0.201 0.428,-0.316 0.06,-0.038 0.081,-0.135 0.152,-0.222 0.849,-1.298 1.661,-2.655 2.423,-4.023 0.081,-0.135 0.103,-0.233 0.184,-0.369 -0.07,0.087 -0.141,0.174 -0.222,0.31 0.042,-0.657 0.28,-1.27 0.713,-1.84 0.644,-0.831 0.974,-1.628 0.989,-2.393 l -0.011,0.049 c -0.027,-0.109 -0.103,-0.228 -0.18,-0.347 0.005,-0.255 -0.049,-0.472 -0.142,-0.748 -0.065,-0.168 -0.13,-0.336 -0.245,-0.515 0.049,0.011 0.147,0.032 0.185,0.092 -0.038,-0.06 -0.038,-0.06 -0.076,-0.119 0.749,0.318 1.042,0.844 0.81,1.663 -0.118,0.537 -0.285,1.064 -0.491,1.53 0.023,0.364 -0.064,0.754 -0.328,1.259 -0.255,0.456 -0.757,1.574 -1.508,3.354 -0.751,1.78 -2.273,3.339 -4.516,4.688 -0.038,-0.06 -0.027,-0.109 0.032,-0.147 0.369,-0.277 0.737,-0.554 1.067,-0.891 -0.059,0.038 -0.059,0.038 -0.119,0.076 -0.119,0.076 -0.238,0.152 -0.357,0.228 -1.241,0.751 -2.45,0.894 -3.519,0.402 -0.744,-0.113 -1.411,-0.567 -1.906,-1.342 -0.267,-0.417 -0.425,-0.862 -0.425,-1.323 0.028,-2.912 1.098,-5.441 3.16,-7.597 0.092,-0.185 0.184,-0.369 0.336,-0.592 0.838,-1.249 1.895,-2.091 3.217,-2.516 z"
           inkscape:connector-curvature="0"
           style="fill:#663300" />
      </g>
      <animate
         attributeName="display"
         begin="0s"
         repeatCount="indefinite"
         dur="0.167s"
         keyTimes="0;0.399;0.798;1"
         values="none;inline;none;none"
         id="animate3257" />
    </g>
    <g
       id="backLegLowerRight2_0">
      <g
         id="element">
        <path
           id="path"
           d="M 1.55,-1.3 C 1.1,-1.65 0.6,-1.9 0.05,-2.1 c -0.1,-0.05 -0.2,-0.05 -0.3,-0.1 l 0,-0.05 c 0,-0.05 0,-0.05 -0.05,-0.05 0,-0.1 -0.05,-0.15 -0.15,-0.2 -0.15,0 -0.3,-0.05 -0.45,-0.1 -0.15,0.05 -0.25,0.05 -0.3,0.1 -0.05,0 -0.15,0 -0.2,0.05 -0.3,-0.05 -0.6,-0.05 -0.9,-0.1 -0.15,-0.05 -0.35,-0.05 -0.5,0 -0.25,0.05 -0.5,0.15 -0.7,0.25 0.05,0.05 0.15,0.05 0.2,0.1 -0.6,0.2 -1.2,0.7 -1.75,1.55 C -5.9,0.7 -6.65,2.15 -7.4,3.8 L -7.45,3.75 c -0.35,0.8 -0.75,1.55 -1.2,2.3 0,0.1 -0.05,0.2 -0.1,0.25 -0.3,0.65 -0.4,1.35 -0.3,2 0.2,0.15 0.35,0.4 0.5,0.7 0.85,1.55 2.25,2.1 4.15,1.65 C -3.95,10.35 -3.55,10 -3.15,9.6 -1.05,7.65 0.55,5.35 1.6,2.7 1.35,2.95 1,3.2 0.6,3.4 0.95,3 1.25,2.55 1.5,2.1 1.55,2.05 1.55,2.05 1.55,2 1.65,1.7 1.75,1.4 1.8,1.1 2,0.4 1.95,-0.3 1.65,-0.95 1.65,-1.1 1.6,-1.2 1.55,-1.3 z M -0.6,-2.25 c -0.3,-0.05 -0.6,-0.05 -0.9,0 0.25,-0.05 0.55,-0.1 0.8,-0.05 0.05,0 0.05,0 0.1,0.05 z"
           inkscape:connector-curvature="0"
           style="fill:#ffffcc" />
        <path
           id="path1"
           d="M -0.6,-2.25 C -0.65,-2.3 -0.65,-2.3 -0.7,-2.3 c -0.25,-0.05 -0.55,0 -0.8,0.05 0.3,-0.05 0.6,-0.05 0.9,0 z m 2.15,0.95 c 0.05,0.1 0.1,0.2 0.1,0.35 C 1.95,-0.3 2,0.4 1.8,1.1 1.75,1.4 1.65,1.7 1.55,2 1.55,2.05 1.55,2.05 1.5,2.1 1.25,2.55 0.95,3 0.6,3.4 1,3.2 1.35,2.95 1.6,2.7 0.55,5.35 -1.05,7.65 -3.15,9.6 -3.55,10 -3.95,10.35 -4.4,10.65 -6.3,11.1 -7.7,10.55 -8.55,9 -8.7,8.7 -8.85,8.45 -9.05,8.3 c -0.1,-0.65 0,-1.35 0.3,-2 0.05,-0.05 0.1,-0.15 0.1,-0.25 0.45,-0.75 0.85,-1.5 1.2,-2.3 0,-0.05 0.05,-0.1 0.1,-0.15 C -7.4,3.65 -7.4,3.75 -7.4,3.8 -6.65,2.15 -5.9,0.7 -5.05,-0.65 -4.5,-1.5 -3.9,-2 -3.3,-2.2 c -0.05,-0.05 -0.15,-0.05 -0.2,-0.1 -1.45,0.7 -2.5,1.85 -3.15,3.5 -0.6,1 -1.2,2 -1.8,3 -0.2,0.3 -0.35,0.6 -0.45,0.85 -0.6,1.05 -0.8,2.25 -0.55,3.55 0.1,0.5 0.3,0.85 0.55,1.1 0.35,0.75 1.15,1.25 2.45,1.5 0.45,0.05 0.85,0.05 1.2,0 C -5,11.15 -4.8,11.15 -4.6,11.1 -1.95,9.75 0.05,7.6 1.4,4.65 1.8,3.75 2.05,2.85 2.1,2 2.35,1.45 2.5,0.8 2.55,0.05 c 0,-0.6 -0.2,-1 -0.65,-1.25 0.05,0.05 0.05,0.15 0.1,0.25 C 1.85,-1.1 1.7,-1.2 1.55,-1.3 z M -7.4,3.8 -7.45,3.75 C -7.45,3.7 -7.4,3.65 -7.35,3.6 -7.4,3.65 -7.4,3.75 -7.4,3.8 z"
           inkscape:connector-curvature="0"
           style="fill:#663300" />
      </g>
      <animate
         attributeName="display"
         begin="0s"
         repeatCount="indefinite"
         dur="0.167s"
         keyTimes="0;0.399;1"
         values="inline;none;none"
         id="animate3263" />
    </g>
  </g>
</svg>

<?xml version="1.0" encoding="utf-8"?>
<!-- Generator: flash2svg, http://dissentgraphics.com/tools/flash2svg -->
<svg xmlns:xlink="http://www.w3.org/1999/xlink" id="Avatar" image-rendering="auto" baseProfile="basic" version="1.1" x="0px" y="0px" width="68" height="126" xmlns="http://www.w3.org/2000/svg" viewBox="0 0 68 126">
  <defs/>
  <g id="backLegLowerRight3" overflow="visible">
    <g id="backLegLowerRight2_4">
      <g id="element2">
        <path id="path19" fill="#630" d="M2.3,-0.45 Q2.15,-1 1.65,-1.25 L1.75,-1.3 C1.7,-1.3 1.6,-1.3 1.55,-1.3 1.6,-1.2 1.6,-1.1 1.6,-0.95 L1.6,-0.9 C1.65,-0.8 1.7,-0.7 1.75,-0.6 1.9,-0.15 1.9,0.45 1.75,1.15 1.6,1.7 1.45,2.2 1.3,2.7 1.35,2.65 1.4,2.65 1.45,2.6 1.45,2.65 1.4,2.75 1.35,2.8 0.25,5.45 -0.9,7.45 -2.1,8.75 -3.35,10.1 -4.35,10.85 -5.1,11.1 -6.15,11 -7.2,10.65 -8.15,10.05 -8.45,9.85 -8.65,9.6 -8.8,9.3 L-8.85,9.3 C-9.35,7.4 -9,5.5 -7.75,3.55 -7.55,3.2 -7.35,2.85 -7.1,2.5 -7.05,2.3 -6.95,2.1 -6.85,1.95 -6.3,1 -5.7,0.25 -4.95,-0.4 -4.8,-0.6 -4.65,-0.85 -4.5,-1.1 -4.1,-1.6 -3.65,-2 -3.1,-2.35 -3.15,-2.35 -3.15,-2.35 -3.2,-2.35 -4.65,-1.75 -5.75,-0.8 -6.5,0.55 -6.55,0.7 -6.6,0.85 -6.75,1 -8.2,2.95 -9.15,5.15 -9.55,7.55 -9.8,9 -9.35,10.1 -8.2,10.85 -8.25,10.8 -8.3,10.7 -8.35,10.65 -7.9,11.05 -7.25,11.3 -6.3,11.45 -4.25,11.1 -2.65,10.3 -1.5,9.1 -1.55,9.15 -1.55,9.2 -1.6,9.25 -0.45,8 0.5,6.55 1.25,4.8 1.6,4 1.85,3.3 2,2.65 1.7,3.05 1.45,3.5 1.2,3.95 1.5,3.25 1.75,2.6 1.95,2.05 2.4,1.4 2.5,0.6 2.3,-0.45z"/>
        <path id="path20" fill="#FFC" d="M1.6,-0.95 C1.6,-1.1 1.6,-1.2 1.55,-1.3 1.45,-1.35 1.35,-1.4 1.25,-1.45 L1.15,-1.45 C-0.05,-1.8 -1.3,-2.1 -2.6,-2.3 -2.8,-2.3 -2.95,-2.3 -3.1,-2.35 -3.65,-2 -4.1,-1.6 -4.5,-1.1 -4.65,-0.85 -4.8,-0.6 -4.95,-0.4 -5.7,0.25 -6.3,1 -6.85,1.95 -6.95,2.1 -7.05,2.3 -7.1,2.5 -7.35,2.85 -7.55,3.2 -7.75,3.55 -9,5.5 -9.35,7.4 -8.85,9.3 L-8.8,9.3 C-8.65,9.6 -8.45,9.85 -8.15,10.05 -7.2,10.65 -6.15,11 -5.1,11.1 -4.35,10.85 -3.35,10.1 -2.1,8.75 -0.9,7.45 0.25,5.45 1.35,2.8 L1.3,2.7 C1.45,2.2 1.6,1.7 1.75,1.15 1.9,0.45 1.9,-0.15 1.75,-0.6 1.7,-0.7 1.65,-0.8 1.6,-0.9 L1.6,-0.95z"/>
      </g>
      <animate attributeName="display" begin="0s" repeatCount="indefinite" dur="0.167s" keyTimes="0;0.798;1" values="none;inline;none"/>
    </g>
    <g id="backLegLowerRight2_2">
      <g id="element1">
        <path id="path10" fill="#FFC" d="M-14.191,-3.269 Q-14.133,-3.27 -14.064,-3.267 C-12.995,-3.236 -11.97,-3.01 -11.096,-2.561 -11.253,-2.544 -11.4,-2.577 -11.557,-2.56 -11.324,-2.457 -11.052,-2.295 -10.83,-2.144 -10.781,-2.133 -10.781,-2.133 -10.792,-2.084 -10.677,-1.905 -10.612,-1.737 -10.547,-1.569 -10.454,-1.293 -10.4,-1.076 -10.405,-0.821 -10.328,-0.702 -10.252,-0.583 -10.225,-0.474 L-10.214,-0.523 C-10.229,0.242 -10.559,1.039 -11.203,1.87 -11.636,2.44 -11.874,3.053 -11.916,3.71 L-11.848,3.75 L-11.878,3.769 C-12.64,5.137 -13.452,6.494 -14.301,7.792 -14.372,7.879 -14.393,7.976 -14.453,8.014 -14.632,8.129 -14.751,8.205 -14.881,8.33 L-14.919,8.27 C-15.91,9.28 -17.135,9.727 -18.594,9.61 -18.995,9.573 -19.396,9.535 -19.847,9.487 -20.883,8.849 -21.482,7.847 -21.581,6.442 -21.658,5.862 -21.529,5.276 -21.215,4.782 -20.512,3.452 -19.831,2.22 -19.198,0.977 L-19.193,0.953 L-19.101,0.999 C-18.355,-0.527 -17.51,-1.569 -16.519,-2.118 -16.367,-2.341 -16.178,-2.504 -15.988,-2.667 -15.679,-2.906 -15.381,-3.096 -15.083,-3.287 -14.975,-3.314 -14.877,-3.292 -14.78,-3.271 L-14.774,-3.295 L-14.191,-3.269z"/>
        <path id="path11" fill="#630" d="M-15.23,-3.319 C-15.181,-3.308 -15.132,-3.297 -15.083,-3.287 -15.381,-3.096 -15.679,-2.906 -15.988,-2.667 -16.178,-2.504 -16.367,-2.341 -16.519,-2.118 -17.51,-1.569 -18.355,-0.527 -19.101,0.999 -19.128,0.89 -19.106,0.793 -19.074,0.646 -19.096,0.744 -19.117,0.841 -19.198,0.977 -19.831,2.22 -20.512,3.452 -21.215,4.782 -21.529,5.276 -21.658,5.862 -21.581,6.442 -21.482,7.847 -20.883,8.849 -19.847,9.487 -19.396,9.535 -18.995,9.573 -18.594,9.61 -17.135,9.727 -15.91,9.28 -14.919,8.27 -14.929,8.319 -14.94,8.368 -14.951,8.417 -14.891,8.378 -14.891,8.378 -14.881,8.33 -14.751,8.205 -14.632,8.129 -14.453,8.014 -14.393,7.976 -14.372,7.879 -14.301,7.792 -13.452,6.494 -12.64,5.137 -11.878,3.769 -11.797,3.634 -11.775,3.536 -11.694,3.4 -11.764,3.487 -11.835,3.574 -11.916,3.71 -11.874,3.053 -11.636,2.44 -11.203,1.87 -10.559,1.039 -10.229,0.242 -10.214,-0.523 L-10.225,-0.474 C-10.252,-0.583 -10.328,-0.702 -10.405,-0.821 -10.4,-1.076 -10.454,-1.293 -10.547,-1.569 -10.612,-1.737 -10.677,-1.905 -10.792,-2.084 -10.743,-2.073 -10.645,-2.052 -10.607,-1.992 -10.645,-2.052 -10.645,-2.052 -10.683,-2.111 -9.934,-1.793 -9.641,-1.267 -9.873,-0.448 -9.991,0.089 -10.158,0.616 -10.364,1.082 -10.341,1.446 -10.428,1.836 -10.692,2.341 -10.947,2.797 -11.449,3.915 -12.2,5.695 -12.951,7.475 -14.473,9.034 -16.716,10.383 -16.754,10.323 -16.743,10.274 -16.684,10.236 -16.315,9.959 -15.947,9.682 -15.617,9.345 -15.676,9.383 -15.676,9.383 -15.736,9.421 -15.855,9.497 -15.974,9.573 -16.093,9.649 -17.334,10.4 -18.543,10.543 -19.612,10.051 -20.356,9.938 -21.023,9.484 -21.518,8.709 -21.785,8.292 -21.943,7.847 -21.943,7.386 -21.915,4.474 -20.845,1.945 -18.783,-0.211 -18.691,-0.396 -18.599,-0.58 -18.447,-0.803 -17.609,-2.052 -16.552,-2.894 -15.23,-3.319z"/>
      </g>
      <animate attributeName="display" begin="0s" repeatCount="indefinite" dur="0.167s" keyTimes="0;0.399;0.798;1" values="none;inline;none;none"/>
    </g>
    <g id="backLegLowerRight2_0">
      <g id="element">
        <path id="path" fill="#FFC" d="M1.55,-1.3 C1.1,-1.65 0.6,-1.9 0.05,-2.1 -0.05,-2.15 -0.15,-2.15 -0.25,-2.2 L-0.25,-2.25 C-0.25,-2.3 -0.25,-2.3 -0.3,-2.3 -0.3,-2.4 -0.35,-2.45 -0.45,-2.5 -0.6,-2.5 -0.75,-2.55 -0.9,-2.6 -1.05,-2.55 -1.15,-2.55 -1.2,-2.5 -1.25,-2.5 -1.35,-2.5 -1.4,-2.45 -1.7,-2.5 -2,-2.5 -2.3,-2.55 -2.45,-2.6 -2.65,-2.6 -2.8,-2.55 -3.05,-2.5 -3.3,-2.4 -3.5,-2.3 -3.45,-2.25 -3.35,-2.25 -3.3,-2.2 -3.9,-2 -4.5,-1.5 -5.05,-0.65 -5.9,0.7 -6.65,2.15 -7.4,3.8 L-7.45,3.75 C-7.8,4.55 -8.2,5.3 -8.65,6.05 -8.65,6.15 -8.7,6.25 -8.75,6.3 -9.05,6.95 -9.15,7.65 -9.05,8.3 -8.85,8.45 -8.7,8.7 -8.55,9 -7.7,10.55 -6.3,11.1 -4.4,10.65 -3.95,10.35 -3.55,10 -3.15,9.6 -1.05,7.65 0.55,5.35 1.6,2.7 1.35,2.95 1,3.2 0.6,3.4 0.95,3 1.25,2.55 1.5,2.1 1.55,2.05 1.55,2.05 1.55,2 1.65,1.7 1.75,1.4 1.8,1.1 2,0.4 1.95,-0.3 1.65,-0.95 1.65,-1.1 1.6,-1.2 1.55,-1.3z M-0.6,-2.25 C-0.9,-2.3 -1.2,-2.3 -1.5,-2.25 -1.25,-2.3 -0.95,-2.35 -0.7,-2.3 -0.65,-2.3 -0.65,-2.3 -0.6,-2.25z"/>
        <path id="path1" fill="#630" d="M-0.6,-2.25 C-0.65,-2.3 -0.65,-2.3 -0.7,-2.3 -0.95,-2.35 -1.25,-2.3 -1.5,-2.25 -1.2,-2.3 -0.9,-2.3 -0.6,-2.25z M1.55,-1.3 C1.6,-1.2 1.65,-1.1 1.65,-0.95 1.95,-0.3 2,0.4 1.8,1.1 1.75,1.4 1.65,1.7 1.55,2 1.55,2.05 1.55,2.05 1.5,2.1 1.25,2.55 0.95,3 0.6,3.4 1,3.2 1.35,2.95 1.6,2.7 0.55,5.35 -1.05,7.65 -3.15,9.6 -3.55,10 -3.95,10.35 -4.4,10.65 -6.3,11.1 -7.7,10.55 -8.55,9 -8.7,8.7 -8.85,8.45 -9.05,8.3 -9.15,7.65 -9.05,6.95 -8.75,6.3 -8.7,6.25 -8.65,6.15 -8.65,6.05 -8.2,5.3 -7.8,4.55 -7.45,3.75 -7.45,3.7 -7.4,3.65 -7.35,3.6 -7.4,3.65 -7.4,3.75 -7.4,3.8 -6.65,2.15 -5.9,0.7 -5.05,-0.65 -4.5,-1.5 -3.9,-2 -3.3,-2.2 -3.35,-2.25 -3.45,-2.25 -3.5,-2.3 -4.95,-1.6 -6,-0.45 -6.65,1.2 -7.25,2.2 -7.85,3.2 -8.45,4.2 -8.65,4.5 -8.8,4.8 -8.9,5.05 -9.5,6.1 -9.7,7.3 -9.45,8.6 -9.35,9.1 -9.15,9.45 -8.9,9.7 -8.55,10.45 -7.75,10.95 -6.45,11.2 -6,11.25 -5.6,11.25 -5.25,11.2 -5,11.15 -4.8,11.15 -4.6,11.1 -1.95,9.75 0.05,7.6 1.4,4.65 1.8,3.75 2.05,2.85 2.1,2 2.35,1.45 2.5,0.8 2.55,0.05 2.55,-0.55 2.35,-0.95 1.9,-1.2 1.95,-1.15 1.95,-1.05 2,-0.95 1.85,-1.1 1.7,-1.2 1.55,-1.3z M-7.4,3.8 L-7.45,3.75 C-7.45,3.7 -7.4,3.65 -7.35,3.6 -7.4,3.65 -7.4,3.75 -7.4,3.8z"/>
      </g>
      <animate attributeName="display" begin="0s" repeatCount="indefinite" dur="0.167s" keyTimes="0;0.399;1" values="inline;none;none"/>
    </g>
  </g>
</svg>
